// This is my second JSFX, it should distort a signal.

desc: Distortion(Test)

slider1:0<0,2,1{Type1,Type2,Type3}>Distortion Type
slider2:0<-30,20,1>Input Gain
slider3:0<-30,20,1>Output Gain

in_pin:left input
in_pin:right input
out_pin:left output
out_pin:right output

@slider

mode  = slider1;
pre   = 2^(slider2/6); 
post  = 2^(slider2/6);

@sample

mode == 0 ?
(
  
  
  
  
  
  
  
  
  
);
