desc:Fonts

@init
function font_create(default, font_name, size) (
    this.default = default;
    this.font_name = font_name;
    this.size = size;
);

function set_from_font() (
    gfx_setfont(this.default, this.font_name, this.size * min(gfx_h, gfx_w));
)