/*
 Nicholas Lenz
 Github : nicholaslenz12@gmail.com
 Converts two channels to one channel.

 The various modes are:
 Left-mono
 Right-mono
 Stereo (averages the spl of both channels)
 */
desc: Mono

// ----------------------------------------------------------------------------
// SLIDER DEFINITIONS
// ----------------------------------------------------------------------------
slider1:0<0,2,1{Left,Right,Stereo}>Channel Mode


// ----------------------------------------------------------------------------
// DEFAULT CHANNEL CONFIGURATION
// ----------------------------------------------------------------------------
in_pin:left input
in_pin:right input
out_pin:left output
out_pin:right output


// ----------------------------------------------------------------------------
// SLIDER
// ----------------------------------------------------------------------------
@slider
mode = slider1;


// ----------------------------------------------------------------------------
// SAMPLE 
// ----------------------------------------------------------------------------
@sample

mode == 1 ?
(
  spl0 = spl1;
) :
(
  mode == 2 ? spl0 = 0.5*(spl0 + spl1);
  spl1 = spl0;
);
